X: 562
T: the Prisoner, a cotillion
%R: reel
Z: 2018 John Chambers <jc:trillian.mit.edu>
B: John Treat - "Gamut for the Fifes", 1779, p.56 #2
F: https://archive.org/details/GamutFortheFifes
M: 2/4
L: 1/16
K: A
% - - - - - - - - - - - - - - - - - - - - - - - - -
|:\
e2ce d2Bd | c2Ac cBAG | ABcd efga | fedc c2B2 |\
e2ce d2Bd | c2Ac cBAG | ABcd efga | fdBG A4  :|
|:\
e2e2 e4   | dcde f4   | d2d2 d4   | cBcd e4   |\
cece cece | cece f2f2 | Bcde dcBA | cBAG A4  :|
% - - - - - - - - - - - - - - - - - - - - - - - - -
